modules/hawcons-filled/icons/icon-57-air-sock.svg

<?xml version="1.0" encoding="UTF-8" standalone="no"?>
<svg width="32px" height="32px" viewBox="0 0 32 32" version="1.1" xmlns="http://www.w3.org/2000/svg" xmlns:xlink="http://www.w3.org/1999/xlink" xmlns:sketch="http://www.bohemiancoding.com/sketch/ns">
    <!-- Generator: Sketch 3.0.3 (7891) - http://www.bohemiancoding.com/sketch -->
    <title>icon 57 air sock</title>
    <desc>Created with Sketch.</desc>
    <defs></defs>
    <g id="Page-1" stroke="none" stroke-width="1" fill="none" fill-rule="evenodd" sketch:type="MSPage">
        <g id="icon-57-air-sock" sketch:type="MSArtboardGroup" fill="#929292">
            <path d="M16,12.1501393 L20,11.7215289 L20,6.27283433 L16,5.84494198 L16,12.1501393 L16,12.1501393 Z M13,12.4715971 L9,12.9002075 L9,5.09613037 L13,5.52402272 L13,12.4715971 L13,12.4715971 Z M23,11.4000711 L26,11.0786133 L26,6.91467285 L23,6.59375359 L23,11.4000711 L23,11.4000711 Z M6.5,4 C6.22385763,4 6,4.21612644 6,4.49938448 L6,28.5006155 C6,28.776418 6.23193359,29 6.5,29 C6.77614237,29 7,28.7838736 7,28.5006155 L7,4.49938448 C7,4.22358205 6.76806641,4 6.5,4 L6.5,4 Z M8,4 L8,14 L27,12 L27,6 L8,4 L8,4 Z" id="air-sock" sketch:type="MSShapeGroup"></path>
        </g>
    </g>
</svg>

<svg width="32" height="32" xmlns="http://www.w3.org/2000/svg"><path d="M16 12.15l4-.428v-5.45l-4-.427v6.305zm-3 .322L9 12.9V5.096l4 .428v6.948zM23 11.4l3-.321V6.915l-3-.321V11.4zM6.5 4c-.276 0-.5.216-.5.5v24c0 .276.232.5.5.5.276 0 .5-.216.5-.5v-24c0-.276-.232-.5-.5-.5zM8 4v10l19-2V6L8 4z" fill="#929292" fill-rule="evenodd"/></svg>
